X:1010
T:Baille de Panderu (CT 047)
R:Panderu
C:Tradicional
S:Música Tradicional Asturiana, (C) Tello & Tito. Asturies, 2001.
S:http://pagina.de/MusTradAst <telloytito@asturies.org>
N:Canción de baile de pandero, dictada por Pedro Menéndez, El Manjoyu, de treinta y nueve años, de San Esteban de Las Cruces, ayuntamiento de Uviéu.
O:San Esteban de Las Cruces (Uviéu)
A:Asturies
Z:Cancioneru de Torner 047
M:6/8
L:1/8
Q:3/8=88
W:Esti panderu que toco,
W:esti que tengo na mano,
W:ye de la mio cuñadita,
W:de la muyer de mio hermanu.
W:Esti panderu que toco,
W:esti que tengo na mano.
K:C
|:Bdd cdB|A2G- G3|Gcc ccc|B2B- B2z:|
Bdd cdB|A2G- G3|Bdd cdB|B2B- B2z||


